X:20
T:Retreat. JBut.020, A
B:John Buttrey MS, poss. Lincolnshire, early 19thC
S:https://buttreymilitarysocialtunes1800.wordpress.com/
Z:Village Music Project 2018 Roger Hare
M:3/4
L:1/8
Q:3/4=40
K:G
|:"^As Written - unedited"(3BAG|FED (3EFGF2A2|def edcB|B2A2(3BAG|
F2E2D2|EFG EAdA|c/B/A/G/F2E2|{E/}D4:|
|:(3ABc|d2F2(3GAB|A>FD2(3def|e2Bcde|d2c2(3ABc|
d2e2(3def|A2G2F/A/d/A/|c/B/A/G/F2E2|{E/}D4:|
zzzzzzzzzz
"^Heavily speculative  edited version - RH"
K:D
|:(3BAG|(3FED (3EFG FA|Bd ce d2|(3def ed cB|B2A2(3BAG|
F2E2D2|(3EFG EA dA|c/B/A/G/F2E2|{E/}D4:|
|:(3ABc|d2F2(3GAB|A>FD2(3def|e2Bc de|d2c2(3ABc |
d2e2(3def|A2G2F/A/d/A/|c/B/A/G/F2E2|{E/}D4:|

